rospo-icon-theme-classic-common/48x48/status/nm-signal-100.svg

<svg height="48" width="48" xmlns="http://www.w3.org/2000/svg" xmlns:xlink="http://www.w3.org/1999/xlink"><clipPath id="a"><path d="m160 247c-7.9134 0-15.037 2.8117-20.945 7.1718l20.94 22.82 20.78-22.9c-5.88-4.31-12.93-7.09-20.78-7.09z"/></clipPath><filter id="b" color-interpolation-filters="sRGB" height="1.288" width="1.205" x="-.1" y="-.14"><feGaussianBlur stdDeviation="1.443"/></filter><clipPath id="c"><path d="m160 247c-7.9134 0-15.037 2.8117-20.945 7.1718l20.94 22.82 20.78-22.9c-5.88-4.31-12.93-7.09-20.78-7.09z"/></clipPath><filter id="d" color-interpolation-filters="sRGB" height="1.385" width="1.274" x="-.14" y="-.19"><feGaussianBlur stdDeviation="1.443"/></filter><path d="m24.082 9.0022c-7.9134 0-15.037 2.8117-20.945 7.1718l20.945 22.82 20.781-22.901c-5.885-4.312-12.929-7.0906-20.781-7.0906z" fill="#5d5d5d"/><path clip-path="url(#a)" d="m159.9 252.99c-6.3037 0-12.154 2.0674-16.853 5.5589l16.941 18.441 16.765-18.441c-4.71-3.49-10.56-5.56-16.86-5.56z" filter="url(#b)" opacity=".2" transform="translate(-135.9 -238)"/><path d="m24 14.994c-6.3037 0-12.154 2.0674-16.853 5.5589l16.941 18.441 16.765-18.442c-4.699-3.491-10.549-5.558-16.853-5.558z" fill="#848484"/><path clip-path="url(#c)" d="m159.9 258.99c-4.7278 0-9.1156 1.5505-12.64 4.1692l12.706 13.831 12.574-13.831c-3.524-2.6186-7.9119-4.1692-12.64-4.1692z" filter="url(#d)" opacity=".2" transform="translate(-135.9 -238)"/><path d="m24 20.994c-4.7278 0-9.1156 1.5505-12.64 4.1692l12.706 13.831 12.574-13.831c-3.524-2.619-7.912-4.169-12.64-4.169z" fill="#e4e4e4"/><g fill="#fff"><path d="m24.082 9.0022c-7.9134 0-15.037 2.8118-20.945 7.1719l.5625.61328c5.7976-4.131 12.714-6.7852 20.383-6.7852 7.6091 0 14.449 2.6224 20.221 6.707l.56-.617c-5.887-4.311-12.93-7.0896-20.783-7.0896z" opacity=".1"/><path d="m24.001 14.993c-6.3037 0-12.155 2.069-16.854 5.5606l.56445.61328c4.6011-3.2483 10.231-5.1738 16.289-5.1738 6.0605 0 11.689 1.9275 16.291 5.1777l.561-.618c-4.698-3.492-10.547-5.561-16.851-5.561z" opacity=".1"/><path d="m24.001 20.993c-4.7278 0-9.1166 1.5513-12.641 4.1699l.56445.61328c3.4249-2.3766 7.5935-3.7832 12.076-3.7832 4.4846 0 8.6524 1.4086 12.078 3.7871l.561-.617c-3.523-2.619-7.91-4.17-12.638-4.17z" opacity=".1"/></g><path d="m44.307 16.717-20.225 22.287-20.385-22.209c-.1843.131-.378.25-.5603.385l20.945 22.82 20.781-22.902c-.1814-.1329-.37305-.25091-.55664-.38086z" opacity=".2"/><rect height="14" opacity=".2" rx="2" width="24" x="22" y="30"/><rect fill="#7f4cab" height="14" rx="2" width="24" x="22" y="29"/><g fill="#fff"><path d="m32.5 31c-1.9217 0-3.5 1.578299-3.5 3.5v3c0 1.9217 1.5783 3.5 3.5 3.5s3.5-1.5783 3.5-3.5v-3c0-1.921701-1.5783-3.5-3.5-3.5zm0 2c .8483 0 1.5.651699 1.5 1.5v3c0 .8483-.6517 1.5-1.5 1.5s-1.5-.6517-1.5-1.5v-3c0-.848301.6517-1.5 1.5-1.5z"/><path d="m25 31-1 2h2v8h2v-10z" fill-rule="evenodd"/><path d="m40.5 31c-1.9217 0-3.5 1.578299-3.5 3.5v3c0 1.9217 1.5783 3.5 3.5 3.5s3.5-1.5783 3.5-3.5v-3c0-1.921701-1.5783-3.5-3.5-3.5zm0 2c .8483 0 1.5.651699 1.5 1.5v3c0 .8483-.6517 1.5-1.5 1.5s-1.5-.6517-1.5-1.5v-3c0-.848301.6517-1.5 1.5-1.5z"/></g></svg>

<svg xmlns="http://www.w3.org/2000/svg" width="48" height="48" version="1">
 <defs>
  <clipPath id="clipPath5078" clipPathUnits="userSpaceOnUse">
   <path fill="#2095f2" d="m160 247c-7.9134 0-15.037 2.8117-20.945 7.1718l20.94 22.82 20.78-22.9c-5.88-4.31-12.93-7.09-20.78-7.09z"/>
  </clipPath>
  <filter id="filter5060" style="color-interpolation-filters:sRGB" width="1.205" height="1.288" x="-.1" y="-.14">
   <feGaussianBlur stdDeviation="1.443"/>
  </filter>
  <clipPath id="clipPath5085" clipPathUnits="userSpaceOnUse">
   <path fill="#2095f2" d="m160 247c-7.9134 0-15.037 2.8117-20.945 7.1718l20.94 22.82 20.78-22.9c-5.88-4.31-12.93-7.09-20.78-7.09z"/>
  </clipPath>
  <filter id="filter5064" style="color-interpolation-filters:sRGB" width="1.274" height="1.385" x="-.14" y="-.19">
   <feGaussianBlur stdDeviation="1.443"/>
  </filter>
 </defs>
 <path style="fill:#5d5d5d" d="m 24.082,9.0022 c -7.9134,0 -15.037,2.8117 -20.945,7.1718 L 24.082,38.994 44.863,16.093 C 38.978,11.781 31.934,9.0024 24.082,9.0024 Z"/>
 <path style="opacity:0.2;filter:url(#filter5060)" d="m 159.9,252.99 c -6.3037,0 -12.154,2.0674 -16.853,5.5589 l 16.941,18.441 16.765,-18.441 c -4.71,-3.49 -10.56,-5.56 -16.86,-5.56 z" clip-path="url(#clipPath5078)" transform="translate(-135.9,-238)"/>
 <path style="fill:#848484" d="m 24,14.994 c -6.3037,0 -12.154,2.0674 -16.853,5.5589 l 16.941,18.441 16.765,-18.442 C 36.154,17.0609 30.304,14.9939 24,14.9939 Z"/>
 <path style="opacity:0.2;filter:url(#filter5064)" d="m 159.9,258.99 c -4.7278,0 -9.1156,1.5505 -12.64,4.1692 l 12.706,13.831 12.574,-13.831 c -3.524,-2.6186 -7.9119,-4.1692 -12.64,-4.1692 z" clip-path="url(#clipPath5085)" transform="translate(-135.9,-238)"/>
 <path style="fill:#cccccc" d="m 24,20.994 c -4.7278,0 -9.1156,1.5505 -12.64,4.1692 L 24.066,38.9942 36.64,25.1632 C 33.116,22.5442 28.728,20.9942 24,20.9942 Z"/>
 <path style="opacity:0.1;fill:#ffffff" d="m 24.082,9.0022 c -7.9134,0 -15.037,2.8118 -20.945,7.1719 l 0.5625,0.61328 c 5.7976,-4.131 12.714,-6.7852 20.383,-6.7852 7.6091,0 14.449,2.6224 20.221,6.707 l 0.56,-0.617 c -5.887,-4.311 -12.93,-7.0896 -20.783,-7.0896 z"/>
 <path style="opacity:0.1;fill:#ffffff" d="m 24.001,14.993 c -6.3037,0 -12.155,2.069 -16.854,5.5606 l 0.56445,0.61328 c 4.6011,-3.2483 10.231,-5.1738 16.289,-5.1738 6.0605,0 11.689,1.9275 16.291,5.1777 l 0.561,-0.618 c -4.698,-3.492 -10.547,-5.561 -16.851,-5.561 z"/>
 <path style="opacity:0.1;fill:#ffffff" d="m 24.001,20.993 c -4.7278,0 -9.1166,1.5513 -12.641,4.1699 l 0.56445,0.61328 c 3.4249,-2.3766 7.5935,-3.7832 12.076,-3.7832 4.4846,0 8.6524,1.4086 12.078,3.7871 l 0.561,-0.617 c -3.523,-2.619 -7.91,-4.17 -12.638,-4.17 z"/>
 <path style="opacity:0.2" d="M 44.307,16.717 24.082,39.004 3.697,16.795 C 3.5127,16.926 3.319,17.045 3.1367,17.18 L 24.0817,40 44.8627,17.098 c -0.1814,-0.1329 -0.37305,-0.25091 -0.55664,-0.38086 z"/>
 <rect style="opacity:0.2" width="24" height="14" x="22" y="30" rx="2" ry="2"/>
 <rect style="fill:#7f4cab" width="24" height="14" x="22" y="29" rx="2" ry="2"/>
 <path style="fill:#ffffff" d="M 32.5,31 C 30.5783,31 29,32.578299 29,34.5 l 0,3 c 0,1.9217 1.5783,3.5 3.5,3.5 1.9217,0 3.5,-1.5783 3.5,-3.5 l 0,-3 C 36,32.578299 34.4217,31 32.5,31 Z m 0,2 c 0.8483,0 1.5,0.651699 1.5,1.5 l 0,3 C 34,38.3483 33.3483,39 32.5,39 31.6517,39 31,38.3483 31,37.5 l 0,-3 C 31,33.651699 31.6517,33 32.5,33 Z"/>
 <path style="fill:#ffffff;fill-rule:evenodd" d="m 25,31 -1,2 2,0 0,8 2,0 0,-10 z"/>
 <path style="fill:#ffffff" d="M 40.5,31 C 38.5783,31 37,32.578299 37,34.5 l 0,3 c 0,1.9217 1.5783,3.5 3.5,3.5 1.9217,0 3.5,-1.5783 3.5,-3.5 l 0,-3 C 44,32.578299 42.4217,31 40.5,31 Z m 0,2 c 0.8483,0 1.5,0.651699 1.5,1.5 l 0,3 C 42,38.3483 41.3483,39 40.5,39 39.6517,39 39,38.3483 39,37.5 l 0,-3 C 39,33.651699 39.6517,33 40.5,33 Z"/>
</svg>
